symbols/web/attribution/materialsymbolsoutlined/attribution_wght700fill1_40px.svg

<svg xmlns="http://www.w3.org/2000/svg" height="40" width="40"><path d="M18.167 31.042h3.666v-7.25h2.375v-7.375q0-1-1.041-1.479-1.042-.48-3.167-.48-2.083 0-3.146.48-1.062.479-1.062 1.479v7.416h2.375ZM20 37.833q-3.708 0-6.958-1.395-3.25-1.396-5.667-3.813-2.417-2.417-3.813-5.667Q2.167 23.708 2.167 20t1.395-6.958q1.396-3.25 3.813-5.667 2.417-2.417 5.667-3.833Q16.292 2.125 20 2.125t6.958 1.417q3.25 1.416 5.667 3.833 2.417 2.417 3.833 5.667 1.417 3.25 1.417 6.958t-1.417 6.958q-1.416 3.25-3.833 5.667-2.417 2.417-5.667 3.813-3.25 1.395-6.958 1.395Zm0-24.458q.917 0 1.583-.646.667-.646.667-1.562 0-.917-.667-1.584-.666-.666-1.583-.666-.917 0-1.583.666-.667.667-.667 1.584 0 .916.667 1.562.666.646 1.583.646Z"/></svg>

<svg xmlns="http://www.w3.org/2000/svg" height="40" width="40"><path d="M18.167 31.042H21.833V23.792H24.208V16.417Q24.208 15.417 23.167 14.938Q22.125 14.458 20 14.458Q17.917 14.458 16.854 14.938Q15.792 15.417 15.792 16.417V23.833H18.167ZM20 37.833Q16.292 37.833 13.042 36.438Q9.792 35.042 7.375 32.625Q4.958 30.208 3.562 26.958Q2.167 23.708 2.167 20Q2.167 16.292 3.562 13.042Q4.958 9.792 7.375 7.375Q9.792 4.958 13.042 3.542Q16.292 2.125 20 2.125Q23.708 2.125 26.958 3.542Q30.208 4.958 32.625 7.375Q35.042 9.792 36.458 13.042Q37.875 16.292 37.875 20Q37.875 23.708 36.458 26.958Q35.042 30.208 32.625 32.625Q30.208 35.042 26.958 36.438Q23.708 37.833 20 37.833ZM20 13.375Q20.917 13.375 21.583 12.729Q22.25 12.083 22.25 11.167Q22.25 10.25 21.583 9.583Q20.917 8.917 20 8.917Q19.083 8.917 18.417 9.583Q17.75 10.25 17.75 11.167Q17.75 12.083 18.417 12.729Q19.083 13.375 20 13.375Z"/></svg>
